src/assets/icons/power-supply.svg

<svg width="22" height="22" viewBox="0 0 22 22" fill="none" xmlns="http://www.w3.org/2000/svg">
<rect x="0.5" y="3.5" width="21" height="15" rx="0.5" stroke="white"/>
<rect x="17" y="13.5" width="2" height="2" rx="0.5" stroke="white"/>
<rect x="14" y="13.5" width="5" height="2" rx="0.5" stroke="white"/>
<path d="M14.3536 6.85352C14.6038 6.60325 14.7546 6.52262 14.8069 6.5H16.5H18.1931C18.2454 6.52263 18.3962 6.60327 18.6464 6.85353L19.3537 7.56084C19.4474 7.65451 19.5 7.78145 19.5 7.9142V9V11C19.5 11.2761 19.2761 11.5 19 11.5H14C13.7239 11.5 13.5 11.2761 13.5 11V9V7.91421C13.5 7.78147 13.5526 7.65451 13.6463 7.56084L14.3536 6.85352ZM14.8277 6.49216C14.8277 6.4922 14.8268 6.49248 14.8251 6.49291C14.8268 6.49235 14.8277 6.49213 14.8277 6.49216ZM18.1723 6.49216C18.1723 6.49213 18.1731 6.49235 18.1749 6.49292C18.1731 6.49248 18.1723 6.49219 18.1723 6.49216Z" stroke="white"/>
<rect x="2.5" y="6.5" width="9" height="9" rx="0.5" stroke="white"/>
<circle cx="7" cy="11" r="3.5" stroke="white"/>
<circle cx="7" cy="11" r="1.5" stroke="white"/>
<path fill-rule="evenodd" clip-rule="evenodd" d="M8.01158 9.27431C8.30327 9.44567 8.54768 9.68888 8.72048 9.97962L11.5555 7.14457L10.8484 6.43747L8.01158 9.27431ZM8.93699 10.5C8.97812 10.6598 9 10.8274 9 11C9 11.1726 8.97812 11.3402 8.93699 11.5H12V10.5H8.93699ZM8.72309 12.016C8.55101 12.3072 8.3072 12.551 8.01598 12.7231L10.8484 15.5555L11.5555 14.8484L8.72309 12.016ZM7.5 12.937C7.34019 12.9781 7.17265 13 7 13C6.82735 13 6.65981 12.9781 6.5 12.937V16H7.5V12.937ZM5.97962 12.7205C5.68888 12.5477 5.44567 12.3033 5.27431 12.0116L2.43744 14.8484L3.14455 15.5556L5.97962 12.7205ZM5.06301 11.5C5.02188 11.3402 5 11.1726 5 11C5 10.8274 5.02188 10.6598 5.06301 10.5H2V11.5H5.06301ZM5.27691 9.98402L2.43744 7.14455L3.14455 6.43744L5.98402 9.27691C5.6928 9.44899 5.44899 9.6928 5.27691 9.98402ZM6.5 9.06301C6.65981 9.02188 6.82735 9 7 9C7.17265 9 7.34019 9.02188 7.5 9.06301V6H6.5V9.06301Z" fill="white"/>
<rect x="15" y="8.5" width="1" height="2" rx="0.5" fill="white"/>
<rect x="17" y="8.5" width="1" height="2" rx="0.5" fill="white"/>
</svg>

<svg width="22" height="22" fill="none" xmlns="http://www.w3.org/2000/svg"><rect x=".5" y="3.5" width="21" height="15" rx=".5" stroke="#fff"/><rect x="17" y="13.5" width="2" height="2" rx=".5" stroke="#fff"/><rect x="14" y="13.5" width="5" height="2" rx=".5" stroke="#fff"/><path d="M14.354 6.854c.25-.25.4-.331.453-.354h3.386c.052.023.203.103.453.354l.708.707a.5.5 0 0 1 .146.353V11a.5.5 0 0 1-.5.5h-5a.5.5 0 0 1-.5-.5V7.914a.5.5 0 0 1 .146-.353zm.474-.362Zm3.344 0Z" stroke="#fff"/><rect x="2.5" y="6.5" width="9" height="9" rx=".5" stroke="#fff"/><circle cx="7" cy="11" r="3.5" stroke="#fff"/><circle cx="7" cy="11" r="1.5" stroke="#fff"/><path fill-rule="evenodd" clip-rule="evenodd" d="M8.012 9.274c.291.172.536.415.708.706l2.835-2.835-.707-.708zm.925 1.226a2 2 0 0 1 0 1H12v-1zm-.214 1.516a2 2 0 0 1-.707.707l2.832 2.832.707-.707zm-1.223.921a2 2 0 0 1-1 0V16h1zm-1.52-.216a2 2 0 0 1-.706-.71l-2.837 2.837.708.708zM5.063 11.5a2 2 0 0 1 0-1H2v1zm.214-1.516-2.84-2.84.708-.707 2.839 2.84a2 2 0 0 0-.707.707M6.5 9.063a2 2 0 0 1 1 0V6h-1z" fill="#fff"/><rect x="15" y="8.5" width="1" height="2" rx=".5" fill="#fff"/><rect x="17" y="8.5" width="1" height="2" rx=".5" fill="#fff"/></svg>
